icons/bed-top-two-color.svg

<?xml version="1.0" encoding="UTF-8"?><svg xmlns="http://www.w3.org/2000/svg" viewBox="0 0 50 50"><g id="uuid-8a662a89-6f62-40ce-9409-33cdd3f1bc67"><polygon points="37.59 20.3 31.97 16.36 15.42 16.36 15.42 46.12 37.59 46.12 37.59 20.3" fill="#ffcd00"/><path d="M39.26,44.36h-2.42V18.29s0-.02,0-.03c0-.01,0-.03,0-.04V5.26h2.41c.28,0,.5-.22,.5-.5V1.86c0-.28-.22-.5-.5-.5H10.74c-.28,0-.5,.22-.5,.5v2.9c0,.28,.22,.5,.5,.5h1.93V44.36h-1.92c-.28,0-.5,.22-.5,.5v3.28c0,.28,.22,.5,.5,.5h28.52c.28,0,.5-.22,.5-.5v-3.28c0-.28-.22-.5-.5-.5ZM16.5,13.6v-2.43c0-1.93,1.57-3.5,3.5-3.5h8.97c1.93,0,3.5,1.57,3.5,3.5v2.43c0,.43-.09,.83-.23,1.21l-1.58-1.11c-.08-.06-.18-.09-.29-.09h-13.88Zm-2.84,1H30.22l5.62,3.95v25.82H13.67V14.61ZM11.24,2.36h27.52v1.9H11.24v-1.9Zm24.61,2.9v12.08l-2.75-1.93c.24-.55,.38-1.16,.38-1.8v-2.43c0-2.48-2.02-4.5-4.5-4.5h-8.97c-2.48,0-4.5,2.02-4.5,4.5v2.43h-1.84V5.26h22.17Zm2.92,42.39H11.25v-2.28h1.88s.03,0,.04,0h23.17s.03,0,.04,0h2.39v2.28Z"/></g><g id="uuid-a205d54c-d1ef-42cb-b72e-b131f3c14209"><text transform="translate(.52 54.89)" font-family="Roboto-Regular, Roboto" font-size="6"><tspan x="0" y="0">bed-</tspan><tspan x="11.58" y="0" letter-spacing="0em">t</tspan><tspan x="13.49" y="0">op</tspan></text></g></svg>

<svg xmlns="http://www.w3.org/2000/svg" viewBox="0 0 50 50"><g id="e7a5a0d4-533a-41cc-abd6-bbfd8491fdd4" data-name="ICONS"><polygon points="37.59 20.3 31.97 16.36 15.42 16.36 15.42 46.12 37.59 46.12 37.59 20.3" fill="#fdd600"/><path d="M39.26,44.36H36.84V18.29a0,0,0,0,1,0,0s0,0,0-.05v-13h2.41a.5.5,0,0,0,.5-.5V1.86a.5.5,0,0,0-.5-.5H10.74a.5.5,0,0,0-.5.5v2.9a.5.5,0,0,0,.5.5h1.93v39.1H10.75a.5.5,0,0,0-.5.5v3.28a.5.5,0,0,0,.5.5H39.26a.5.5,0,0,0,.5-.5V44.86A.5.5,0,0,0,39.26,44.36ZM16.5,13.6V11.17A3.5,3.5,0,0,1,20,7.67h9a3.5,3.5,0,0,1,3.5,3.5V13.6a3.46,3.46,0,0,1-.22,1.21L30.66,13.7a.47.47,0,0,0-.28-.09H16.5Zm-2.83,1H30.22l5.62,3.94V44.37H13.67ZM11.24,2.36H38.75v1.9H11.24Zm24.6,2.9V17.33L33.09,15.4a4.5,4.5,0,0,0,.38-1.8V11.17A4.51,4.51,0,0,0,29,6.67H20a4.51,4.51,0,0,0-4.5,4.5V13.6H13.67V5.26Zm2.92,42.38H11.25V45.36H38.76Z" fill="#231f20"/></g><g id="bc53cdae-edd8-4fe7-b7b8-feefee79741d" data-name="LABELS"><text transform="translate(0.52 54.89)" font-size="6" fill="#231f20" font-family="Roboto-Regular, Roboto">bed-<tspan x="11.58" y="0" letter-spacing="-0.01em">t</tspan><tspan x="13.49" y="0">op</tspan></text></g></svg>
